X:10
T: Scollay's Reel
C: Irish Trad.
Z: Hacked up substantially (incl chords) from Knack
R: reel
M: C|
Q: 1/2=108
K: Em
"Em"E2EF G2A2| BcBA GFGA| B2E2 E2G2| "D"FGAF D2F2|
"Em"E2EF G2A2| BABd e2 d2 | "Bm"B2 Bc "B7"BAGF| "Em"G2E2 E4 :|
|:\
"Em"efge B2B2| g2g2 B4| "Am"c2BA "C"G2G2| "D"FGAF D3F|
"Em"E3F "D"G3A| "G"BABd "C"e2d2| "B7"B3c BAGF| "Em"G2E2 E4 :|
%%text 9/1/98.  Set 2
